src/icons/leaf.svg

<svg width="47" height="40" viewBox="0 0 47 40" fill="none" xmlns="http://www.w3.org/2000/svg">
<path d="M24.8066 6.27348C17.8505 6.27348 11.9651 10.7632 9.96503 16.9528C12.9387 15.4708 16.2928 14.6426 19.8506 14.6426H27.6387C28.4175 14.6426 29.0547 15.2703 29.0547 16.0375C29.0547 16.8046 28.4175 17.4323 27.6387 17.4323H26.2227H19.8506C18.3815 17.4323 16.9566 17.598 15.576 17.9031C13.2838 18.4174 11.1598 19.3328 9.25702 20.5795C4.12396 23.9533 0.734375 29.7158 0.734375 36.2629V37.6577C0.734375 38.8172 1.68134 39.75 2.8584 39.75C4.03546 39.75 4.98242 38.8172 4.98242 37.6577V36.2629C4.98242 32.0173 6.81439 28.1989 9.74377 25.5225C11.4961 32.1045 17.5761 36.9603 24.8066 36.9603H24.8951C36.5861 36.8993 46.0469 25.5486 46.0469 11.5565C46.0469 7.84269 45.3831 4.31197 44.1795 1.12995C43.9494 0.528424 43.0555 0.554577 42.7458 1.12124C41.082 4.18992 37.7897 6.27348 34.0107 6.27348H24.8066Z" fill="#FFB801"/>
</svg>

<svg xmlns="http://www.w3.org/2000/svg" width="47" height="40" fill="none">
  <path fill="#FFB801" d="M24.807 6.273c-6.956 0-12.842 4.49-14.842 10.68a22.087 22.087 0 0 1 9.886-2.31h7.788a1.41 1.41 0 0 1 1.416 1.395 1.41 1.41 0 0 1-1.416 1.394H19.85c-1.47 0-2.894.166-4.275.471a19.152 19.152 0 0 0-6.319 2.677C4.124 23.953.734 29.715.734 36.263v1.395c0 1.16.947 2.092 2.124 2.092s2.124-.933 2.124-2.092v-1.395c0-4.246 1.832-8.064 4.762-10.74 1.752 6.582 7.832 11.437 15.063 11.437h.088c11.691-.06 21.152-11.411 21.152-25.404 0-3.713-.664-7.244-1.867-10.426-.23-.602-1.124-.575-1.434-.009-1.664 3.069-4.956 5.152-8.735 5.152h-9.204Z"/>
</svg>
